X:168
T:Bonny at Morn
Z:Jack Campin, http://www.campin.me.uk/
F:Jack Campin's Nine-Note Tunebook
% last edit 03-02-2013
S:Northumbrian Minstrelsy
M:6/4
L:1/8
Q:3/4=50
K:DMin
   E2|(A3   B)  A G  A2 D2 (EF)|(G3  F) E D (C2 D2)
[1 E2| A3   B  (A`G) A2 D2  E2 | G2 E2  C2   D4 :|
[2 E2|(DC)(DE) (F`G) A2 d2  c2 | A2 c2  E2   D4 ||
   z2| D2  d2   d2  (D4     F2)| E2 c2  c2   C4 
   E2|(DC``DE) (FG)  A2 d2  c2 | A2 c2  E2   D4 |]

